X:122
T:Daybreak in Dixie
C:Ron Inscore (Kenny & Amanda Smith Band, Pulaski, VA 12-5-98)
N:Transcribed by Steve Keating
R:bluegrass
L:1/8
Q:1/4=300
M:4/4
K:A
zg aa ab a2 | {g}aa ba a2 ef | =g2 f2 e2 c2 | A2 E2 A2 c2 | "A"de ee eA cB | A2 Ac cB Ac | 
"D"AB Bc B2 A2 | EF FD E2 F2 | "E"[BG][BG] [BG][BG] [BG][BF] E2 | de ee eA cB | 
"A"A2 B=c ^cf ec | =cB AB ^c2 d2 | d/e/e ee ef =gf | eg fg af =gf | "D"df ed BA Bc | 
df ec df eg | "E"f=g ^gf =gf e^g | fg af =gf df | "A"ed cA B=c ^cB | =cB Ac BB A^c | 
"E"B2 FG B2 e2 | B2 FG A2 e2 | "A"GA AA AA BA | B=c ^cB =cB A^c | "E"B2 FG e2 A2 | 
G2 G2 e2 G2 | "A"A2 B=c ^cf eg | fe fg a2 e2 | "E"B2 FG B2 e2 | B2 G2 A2 e2 | 
"A"GA AA AA BA | B=c ^cB =cB A^c | "D"Bc df ef =gf | "E"eg fg af =gf | "A"df ed cB {B}=cB | 
A2 F2 E2 C2 | A,8 | "Second Break"z2 EF AB c2 | d/e/e ee ef =gf | ea f=g af gf | 
ef =g2 df ed | Bc df ec df | eg f=g ^gf =gf | eg fg af =gf | df e2 cA =cB | A2 =cd ^d=g e=d | 
e=g ea eb e=c' | eb a=g bg e=c | A2 ^d=g ed =d=c | ^d=d =c^d =dc Ac | Ac BG =G2 Ac | 
B2 c2 eg fg | af =gf ed cB | A2 AA A2 A2 | bg B2 eg bg | eg B2 bg ea | c'a ea ea c'a | 
ea ea c'a eg | bg eg eg bg | eg eg bg ea | c'a eb d'b e=c' | ^d'=c' e^c' e'c' e2 | 
eg eg eg bg | e{g}a fg af =gf | ec df ed c2 | B=c ^cf ec Bc | d2 d2 f2 =g2 | eg fg af =gf | 
ec df ed cB | A2 F2 E2 C2 | A,8 | "Third Break"E2 E2 AB c2 | {d}e2 zf ef =gf | 
eg fg af =gf | df ed BA Bc | df ec df eg | f=g ^gf =gf e^g | fg af {d}eg ea | 
e=c' ^c'c' c'c' =c'^c' | c'c' =c'^c' c'c' =c'^c' | a=c' a2 c'b c'b | ab =c'a c'a c'b | 
a=c' ba ba ea | =ge eg e^d =dA | =cd ^d=g ed =dc | A=c d^d e=g ed | d=c ^d=d cd cG | 
A2 Ac BB Ac | B2 FG B2 e2 | B2 G2 B2 e2 | GA AA AA BA | B=c ^cB =cB A^c | B2 G2 B2 e2 | 
B2 G2 B2 e2 | A2 B=c ^cf eg | fe fg a2 e2 | {^A}B2 G2 B2 e2 | B2 G2 B2 e2 | GA AA AA BA | 
B=c ^cB =cB A^c | B2 df e2 =gf | eg fg af =gf | ec df ed c2 | AB =c^c a2 eg | 
"Ending"ag bg ae =gf | ef e2 cB AB | =c^c =cB AB A2 | F2 E2 [E4A,4] | z8 | 


